gama.ui.shared/icons_svg/light/overlays/small.plus.svg

<svg height="16" viewBox="-912 -3507.488 16 16" width="16" xmlns="http://www.w3.org/2000/svg"><g fill="none"><path d="m-902.4733-3497.9616h4.4733v-3.0534h-4.4733v-4.4734h-3.0534v4.4734h-4.4733v3.0534h4.4733v4.4732h3.0534z" fill="#fff"/><path d="m-902.4733-3497.9616h4.4733v-3.0534h-4.4733v-4.4734h-3.0534v4.4734h-4.4733v3.0534h4.4733v4.4732h3.0534z" stroke="#000" stroke-linecap="round" stroke-linejoin="round" stroke-width=".5"/></g></svg>

<?xml version="1.0" encoding="UTF-8" standalone="no"?>
<!DOCTYPE svg PUBLIC "-//W3C//DTD SVG 1.1//EN" "http://www.w3.org/Graphics/SVG/1.1/DTD/svg11.dtd">
<svg version="1.1" xmlns="http://www.w3.org/2000/svg" xmlns:xl="http://www.w3.org/1999/xlink" xmlns:dc="http://purl.org/dc/elements/1.1/" viewBox="-912 -3507.4884 16.000008 16.000008" width="16.000008" height="16.000008">
  <defs/>
  <g id="SOURCES" stroke-dasharray="none" fill="none" stroke="none" fill-opacity="1" stroke-opacity="1">
    <title>SOURCES</title>
    <g id="SOURCES_Calque_2">
      <title>Calque 2</title>
      <g id="Group_9365">
        <g id="Graphic_9354"/>
        <g id="Graphic_9348">
          <path d="M -902.4733 -3497.9616 L -898 -3497.9616 L -898 -3501.015 L -902.4733 -3501.015 L -902.4733 -3505.4884 L -905.5267 -3505.4884 L -905.5267 -3501.015 L -910 -3501.015 L -910 -3497.9616 L -905.5267 -3497.9616 L -905.5267 -3493.4884 L -902.4733 -3493.4884 Z" fill="white"/>
          <path d="M -902.4733 -3497.9616 L -898 -3497.9616 L -898 -3501.015 L -902.4733 -3501.015 L -902.4733 -3505.4884 L -905.5267 -3505.4884 L -905.5267 -3501.015 L -910 -3501.015 L -910 -3497.9616 L -905.5267 -3497.9616 L -905.5267 -3493.4884 L -902.4733 -3493.4884 Z" stroke="black" stroke-linecap="round" stroke-linejoin="round" stroke-width=".5"/>
        </g>
      </g>
    </g>
  </g>
</svg>
